X:12
T: Whayasay
C: Sam Bush
S: MandoZine TablEdit Archives
Z: TablEdited by Mike Stangeland for MandoZine
L: 1/8
Q: 480
M: 4/4
K: Gm
 |: "Gm"[FG,][GG,] z[GG,] [GG,][GG,] [FG,]G | [GG,][GG,] [GG,][GG,] [(3FG,]GF [D2G,2] |
 [FG,]G [GG,][GG,] [GG,][GG,] [GG,]A | BA GF DB, G,[DG,] |
 [FG,]G [GG,][GG,] [GG,][GG,] [FG,]G | [GG,][GG,] [GG,][GG,] [(3FG,]GF [D2G,2]
 |1 [FG,]G [GG,][GG,] [GG,][GG,] [GG,]D | (3GFD CD B,2 G,2 :|2 FG [GG,][GG,] [GG,][GG,] [GG,][GG,] | G2 DF GA Bc
 |: "Gm"cd dd dd dd | dd (3c_dc BG F=D | FG GG GG GG | G2 [G2G,2] DF G2 | [AG]B [BG][BG] [BG][BG] [BG][BG] |
 [BG][BG] [BG][BG] [AF][AF] [AF][AF] | "Eb"[GE][GE] [GE][GE] [GE][GE] [GE][GE] |
 [GE][GE] [GE][GE] [GE][GE] [GE][GE] | [_GE][=GE] [GE][GE] [GE][GE] [GE][GE] |
 [GE][GE] [GE][GE] "Bb"[FD][FD] [FD][FD] | "Cm"[E2C2] [E2C2] [EC][EC] [EC][EC] |
 [EC][EC] [EC][EC] CD EC | "D"DD DD DD DD | D2 (3FGF DF D_D
 |1 C"Gm"B, G,3[DG,] [DG,][DG,] | [D2G,2] DF GA Bc :|2 C"Gm"B, G,2 G,2 d2 |  G4 G,2 CD
 |: "Gm"DG GA BA GD | "Eb"B,E EF GF EG, | "F"CF FG AG FE | "Bb"DB Ac BA GF |
 "Gm"DG GA BA GD | "Eb"B,E EF GF EG, | "F"CF FG AG FE |1 D"Bb"B zc B2 CD :|2 D"Bb"B zc B2 A2 |
 |: "Bb"c'd' d'b c'b ac' | "Gm"(3abb bg ag f_a | "Eb"(3_g=gg ge fe df | "Cm"(3dee ec dc Bc |
 "F"fc Ac "Bb"Bc de | "F"fc Ac "Bb"Bc df | "Cm"ge cd ef gb | "F"ga ab a4 :|
M: 6/8
K: Gm
 |: "Gm"DGA BAG | "Eb"B,EF GFE | "F"CFC GCA | AGF AGF | "Gm"DGA BAG | "Eb"B,EF GFE | "F"CFC GCA | AGF AGF :|
